Yaru++/mimetypes/16/libreoffice-drawing.svg

<svg height="16" viewBox="0 0 4.233125 4.233125" width="16" xmlns="http://www.w3.org/2000/svg" xmlns:xlink="http://www.w3.org/1999/xlink"><linearGradient id="a" gradientUnits="userSpaceOnUse" x1="2.116711" x2="2.116711" y1=".26457" y2="3.968555"><stop offset="0" stop-color="#fff"/><stop offset=".125" stop-color="#fff" stop-opacity=".098039"/><stop offset=".92500001" stop-color="#fff" stop-opacity=".098039"/><stop offset="1" stop-color="#fff" stop-opacity=".498039"/></linearGradient><linearGradient id="b" gradientUnits="userSpaceOnUse" x1="993.01337" x2="993.01337" y1="-705.58411" y2="-689.63782"><stop offset="0" stop-color="#c99c00"/><stop offset="1" stop-color="#876900"/></linearGradient><linearGradient id="c" gradientTransform="matrix(0 -.00817387 .0079466 0 -.433036 4.136917)" gradientUnits="userSpaceOnUse" x1="441.37933" x2="52.9655" y1="240.30263" y2="401.439"><stop offset="0" stop-color="#f2f2f2"/><stop offset="1" stop-color="#f9f9f9"/></linearGradient><linearGradient id="d" gradientTransform="matrix(0 -.01021733 .01033057 0 -1.197959 4.642008)" gradientUnits="userSpaceOnUse" x1="52.965412" x2="441.37927" y1="401.42969" y2="240.30267"><stop offset="0" stop-color="#d98027"/><stop offset="1" stop-color="#be5e0f"/></linearGradient><path d="m1.3483185.26457061c-.1902366 0-.3444309.003678-.48573256.0273883-.14130436.02373198-.28264046.07309551-.39065659.18085764-.10801348.10775945-.15783472.24955065-.18137354.39116985-.02354675.1416218-.02677186.2964457-.02584851.4872856v.7652908 1.0314115c-.00079371.1900038.002381.3445631.0258485.4857352.0235468.1416192.0733574.2834104.18137354.3911699.10801613.1077621.24935223.1571389.39065659.1808576.14130167.023732.29549597.027388.48573257.027388h1.5367831c.1902367 0 .3440949-.00362.4852167-.027388.1411245-.0237584.2824765-.0735294.3901381-.1813736.1076616-.1078441.1571653-.249413.1808576-.3906539.0236949-.1412435.0273883-.2951308.0273883-.4857352v-1.0314115-.7937109l-1.0582812-1.05828129z" opacity=".1"/><path d="m1.2845041.1322881c-.80473289 0-.89132146.0817496-.88737672.8792492v1.1050281 1.1050256c-.003942.7975022.0826438.8792518.88737672.8792518h1.6645336c.8047356 0 .8873794-.081739.8873794-.8792518v-1.1050256-1.1338742l-.8598535-.8504031z" fill="url(#d)"/><path d="m1.4765531.5291409c-.68269459 0-.68269459 0-.68259934.7033999v.884022.8840194c-.00009525.7034025-.00009525.7034025.68259934.7034025h1.2804118c.6825968 0 .6825994 0 .6825994-.7034025v-.8840194l-.0000026-1.0582813-.5291406-.5291406z" fill="url(#c)"/><g enable-background="new" transform="matrix(.26457031 0 0 .26457031 -260.86827 186.68738)"><path d="m997.5-698.1378-5.5 5h5.5z" fill="#e9b913" stroke="#e9b913" stroke-linejoin="round"/><path d="m997.34375-698.625c-.0712.0269-.13532.0696-.1875.125l-5.5 5c-.15783.13912-.21169.36215-.13477.55797.0769.19582.2682.32254.47852.31703h5.5c.27613-.00003.49997-.22387.5-.5v-5c.008-.16474-.0652-.32297-.19636-.42294-.13121-.1-.30327-.12879-.45989-.0771zm-.34375 1.625v3.375h-3.71875z" fill="url(#b)"/><path d="m1113.6781 1058.0121a2.3685112 2.3685112 0 0 1 -.5509-2.4849 2.3685112 2.3685112 0 0 1 2.0193-1.5494 2.3685112 2.3685112 0 0 1 2.2576 1.1752" fill="#f09e6f" stroke="#a33e03" stroke-linecap="round" stroke-linejoin="round" stroke-width=".944449" transform="matrix(1.05634 -.0723819 .0723819 1.05634 -261.636 -1731.79)"/></g><path d="m2.1167101.26457061v3.70398439h.7683915c.7428341 0 .8190304-.076236.8190304-.8205807v-1.0314115-1.0582813l-.7937109-.79371089z" fill="#fff" opacity=".2"/><path d="m.5292882 2.1165628v1.0314115c-.003651.7443342.0761989.8205807.8190303.8205807h1.5367831c.7428341 0 .8190304-.076236.8190304-.8205807v-1.0314115z" fill="#fff" opacity=".2"/><path d="m1.3483185.0000003c-.1902366 0-.3444309.003678-.48573256.0273883-.14130436.02373198-.28264046.0730955-.39065659.18085764-.10801348.10775949-.15783472.2495533-.18137354.39116986-.02354675.1416245-.02676128.2964457-.02584851.4872856v1.0298611 1.0314115c-.00079371.1900038.002381.3445631.0258485.4857352.0235468.1416192.0733574.2834104.18137354.3911699.10801613.1077621.24935223.1571389.39065659.1808576.14130167.023732.29549597.027388.48573257.027388h1.5367831c.1902367 0 .3440949-.00362.4852167-.027388.1411245-.0237584.2824765-.0735294.3901381-.1813736.1076616-.1078441.1571653-.249413.1808576-.3906539.0236949-.1412435.0273883-.2951308.0273883-.4857352v-1.0314115-1.1678292l-.9487333-.9487333zm0 .26457031h1.5621026l.7937109.79371089v1.0582813 1.0314115c0 .7443448-.076196.8205807-.8190304.8205807h-1.5367831c-.7428314 0-.82268138-.076246-.8190303-.8205807v-1.0314115-1.0314115c-.0036405-.74433417.0761989-.82058069.8190303-.82058069z" opacity=".4"/><path d="m1.3483185.26457061c-.7428314 0-.8226708.0762465-.8190303.82058069v1.0314115 1.0314115c-.003651.7443342.0761989.8205807.8190303.8205807h1.5367831c.7428341 0 .8190304-.076236.8190304-.8205807v-1.0314115-1.0582813l-.7937109-.79371089zm0 .26457029h1.5621026l.5291406.5291406v1.0582813 1.0314115c0 .1815667-.00582.3159975-.019631.3984058-.013811.082406-.029841.09959-.034103.1038651-.00426.00426-.021245.020293-.1033491.034103-.082112.013816-.2161962.019636-.3973767.019636h-1.5367834c-.1811777 0-.3153969-.0063-.39788728-.02016-.082493-.013837-.10001551-.029235-.10438092-.033587-.004365-.00437-.0199486-.021324-.0335898-.1033491-.0136254-.08203-.0194988-.216564-.0185993-.3978899v-.0005292-1.0319062-1.0319274-.0005291c-.00079371-.1813286.004974-.31586.0185993-.39789.0136254-.08203.0292218-.098992.0335898-.1033491.004365-.00436.02188-.019737.10438092-.033587.08249-.013837.21670958-.02016.39788728-.02016z" fill="url(#a)" opacity=".4"/><path d="m3.704132 1.3228519v-.2645704l-.7937109-.79371089h-.2645704v.40494339.01553.00833c0 .5476103.073304.6320506.6221715.6293652z" fill="#7c3216" opacity=".6"/><path d="m3.704132 1.058181-.7937109-.79361039v.29438469.012832.00688c0 .4517777.020822.4817641.4736364.4795496z" fill="#d98027"/></svg>

<?xml version="1.0" encoding="UTF-8" standalone="no"?>
<svg
   xmlns:dc="http://purl.org/dc/elements/1.1/"
   xmlns:cc="http://creativecommons.org/ns#"
   xmlns:rdf="http://www.w3.org/1999/02/22-rdf-syntax-ns#"
   xmlns:svg="http://www.w3.org/2000/svg"
   xmlns="http://www.w3.org/2000/svg"
   xmlns:xlink="http://www.w3.org/1999/xlink"
   xmlns:sodipodi="http://sodipodi.sourceforge.net/DTD/sodipodi-0.dtd"
   xmlns:inkscape="http://www.inkscape.org/namespaces/inkscape"
   height="16"
   viewBox="0 0 4.233125 4.233125"
   width="16"
   version="1.1"
   id="svg51"
   sodipodi:docname="libreoffice-drawing.svg"
   inkscape:version="0.92.5 (2060ec1f9f, 2020-04-08)">
  <metadata
     id="metadata57">
    <rdf:RDF>
      <cc:Work
         rdf:about="">
        <dc:format>image/svg+xml</dc:format>
        <dc:type
           rdf:resource="http://purl.org/dc/dcmitype/StillImage" />
      </cc:Work>
    </rdf:RDF>
  </metadata>
  <defs
     id="defs55">
    <linearGradient
       gradientTransform="matrix(0.26457031,0,0,0.26457031,-84.662351,-62.438593)"
       inkscape:collect="always"
       xlink:href="#linearGradient927"
       id="linearGradient993"
       x1="328"
       y1="237"
       x2="328"
       y2="251"
       gradientUnits="userSpaceOnUse" />
    <linearGradient
       inkscape:collect="always"
       id="linearGradient927">
      <stop
         style="stop-color:#ffffff;stop-opacity:1;"
         offset="0"
         id="stop923" />
      <stop
         id="stop933"
         offset="0.125"
         style="stop-color:#ffffff;stop-opacity:0.09803922" />
      <stop
         id="stop931"
         offset="0.92500001"
         style="stop-color:#ffffff;stop-opacity:0.09803922" />
      <stop
         style="stop-color:#ffffff;stop-opacity:0.49803922"
         offset="1"
         id="stop925" />
    </linearGradient>
    <linearGradient
       inkscape:collect="always"
       xlink:href="#linearGradient10125-8"
       id="linearGradient54154"
       gradientUnits="userSpaceOnUse"
       x1="993.01337"
       y1="-705.58411"
       x2="993.01337"
       y2="-689.63782" />
    <linearGradient
       id="linearGradient10125-8">
      <stop
         style="stop-color: rgb(201, 156, 0); stop-opacity: 1;"
         offset="0"
         id="stop10127-5" />
      <stop
         style="stop-color: rgb(135, 105, 0); stop-opacity: 1;"
         offset="1"
         id="stop10129-5" />
    </linearGradient>
    <linearGradient
       inkscape:collect="always"
       xlink:href="#linearGradient4338"
       id="linearGradient920-7"
       gradientUnits="userSpaceOnUse"
       gradientTransform="matrix(0,-0.00817387,0.0079466,0,-0.43303604,4.1369169)"
       x1="441.37933"
       y1="240.30263"
       x2="52.9655"
       y2="401.439" />
    <linearGradient
       inkscape:collect="always"
       id="linearGradient4338">
      <stop
         style="stop-color:#f2f2f2;stop-opacity:1"
         offset="0"
         id="stop4340" />
      <stop
         style="stop-color:#f9f9f9;stop-opacity:1"
         offset="1"
         id="stop4342" />
    </linearGradient>
    <linearGradient
       inkscape:collect="always"
       xlink:href="#linearGradient7707"
       id="linearGradient920"
       gradientUnits="userSpaceOnUse"
       gradientTransform="matrix(0,-0.01021733,0.01033057,0,-1.1979591,4.6420081)"
       x1="52.965412"
       y1="401.42969"
       x2="441.37927"
       y2="240.30267" />
    <linearGradient
       id="linearGradient7707">
      <stop
         offset="0"
         style="stop-color:#d98027;stop-opacity:1"
         id="stop7703" />
      <stop
         offset="1"
         style="stop-color:#be5e0f;stop-opacity:1"
         id="stop7705" />
    </linearGradient>
  </defs>
  <sodipodi:namedview
     pagecolor="#ffffff"
     bordercolor="#666666"
     borderopacity="1"
     objecttolerance="10"
     gridtolerance="10"
     guidetolerance="10"
     inkscape:pageopacity="0"
     inkscape:pageshadow="2"
     inkscape:window-width="834"
     inkscape:window-height="480"
     id="namedview53"
     showgrid="false"
     inkscape:zoom="14.75"
     inkscape:cx="8"
     inkscape:cy="8"
     inkscape:window-x="0"
     inkscape:window-y="28"
     inkscape:window-maximized="0"
     inkscape:current-layer="svg51" />
  <linearGradient
     id="a"
     gradientUnits="userSpaceOnUse"
     x1="328"
     x2="328"
     y1="237"
     y2="251">
    <stop
       offset="0"
       stop-color="#fff"
       id="stop2" />
    <stop
       offset=".125"
       stop-color="#fff"
       stop-opacity=".098039"
       id="stop4" />
    <stop
       offset=".92500001"
       stop-color="#fff"
       stop-opacity=".098039"
       id="stop6" />
    <stop
       offset="1"
       stop-color="#fff"
       stop-opacity=".498039"
       id="stop8" />
  </linearGradient>
  <clipPath
     id="b">
    <path
       d="m325.09646 237c-2.80769 0-3.10979.28839-3.09603 3.10176v3.89824 3.89824c-.0138 2.81337.28834 3.10176 3.09603 3.10176h5.8075c2.8077 0 3.09604-.28835 3.09604-3.10176v-3.89824-3.89824c0-2.8134-.28835-3.10176-3.09604-3.10176z"
       id="path11" />
  </clipPath>
  <linearGradient
     id="c"
     gradientUnits="userSpaceOnUse"
     x1="993.01337"
     x2="993.01337"
     y1="-705.58411"
     y2="-689.63782">
    <stop
       offset="0"
       stop-color="#c99c00"
       id="stop14" />
    <stop
       offset="1"
       stop-color="#876900"
       id="stop16" />
  </linearGradient>
  <linearGradient
     id="d"
     gradientUnits="userSpaceOnUse"
     x1="3.17497692"
     x2="1.05841444"
     y1="-.00000084"
     y2="4.23312412">
    <stop
       offset="0"
       stop-color="#f2f2f2"
       id="stop19" />
    <stop
       offset="1"
       stop-color="#fff"
       id="stop21" />
  </linearGradient>
  <linearGradient
     id="e"
     gradientTransform="matrix(0 -.00953618 -.00953591 0 5.176271 4.473642)"
     gradientUnits="userSpaceOnUse"
     x1="459.03448"
     x2="35.310345"
     y1="419.23337"
     y2="207.36522">
    <stop
       offset="0"
       stop-color="#d98027"
       id="stop24" />
    <stop
       offset="1"
       stop-color="#be5e0f"
       id="stop26" />
  </linearGradient>
  <path
     style="color:#000000;font-style:normal;font-variant:normal;font-weight:normal;font-stretch:normal;font-size:medium;line-height:normal;font-family:sans-serif;font-variant-ligatures:normal;font-variant-position:normal;font-variant-caps:normal;font-variant-numeric:normal;font-variant-alternates:normal;font-feature-settings:normal;text-indent:0;text-align:start;text-decoration:none;text-decoration-line:none;text-decoration-style:solid;text-decoration-color:#000000;letter-spacing:normal;word-spacing:normal;text-transform:none;writing-mode:lr-tb;direction:ltr;text-orientation:mixed;dominant-baseline:auto;baseline-shift:baseline;text-anchor:start;white-space:normal;shape-padding:0;clip-rule:nonzero;display:inline;overflow:visible;visibility:visible;opacity:0.1;isolation:auto;mix-blend-mode:normal;color-interpolation:sRGB;color-interpolation-filters:linearRGB;solid-color:#000000;solid-opacity:1;vector-effect:none;fill:#000000;fill-opacity:1;fill-rule:nonzero;stroke:none;stroke-width:0.52914065;stroke-linecap:butt;stroke-linejoin:miter;stroke-miterlimit:4;stroke-dasharray:none;stroke-dashoffset:0;stroke-opacity:1;marker:none;color-rendering:auto;image-rendering:auto;shape-rendering:auto;text-rendering:auto;enable-background:accumulate"
     d="m 1.3483185,0.26457061 c -0.1902366,0 -0.3444309,0.003678 -0.48573256,0.0273883 C 0.72128158,0.31569089 0.57994548,0.36505442 0.47192935,0.47281655 0.36391587,0.580576 0.31409463,0.7223672 0.29055581,0.8639864 0.26700906,1.0056082 0.26378395,1.1604321 0.2647073,1.351272 V 2.1165628 3.1479743 C 0.26391359,3.3379781 0.2670883,3.4925374 0.2905558,3.6337095 0.3141026,3.7753287 0.3639132,3.9171199 0.47192934,4.0248794 0.57994547,4.1326415 0.72128157,4.1820183 0.86258593,4.205737 1.0038876,4.229469 1.1580819,4.233125 1.3483185,4.233125 h 1.5367831 c 0.1902367,0 0.3440949,-0.00362 0.4852167,-0.027388 C 3.5114428,4.1819786 3.6527948,4.1322076 3.7604564,4.0243634 3.868118,3.9165193 3.9176217,3.7749504 3.941314,3.6337095 3.9650089,3.492466 3.9687023,3.3385787 3.9687023,3.1479743 V 2.1165628 1.3228519 L 2.9104211,0.26457061 Z"
     id="path997"
     inkscape:connector-curvature="0"
     sodipodi:nodetypes="scscccccccsscscscccs" />
  <path
     style="color:#000000;display:inline;overflow:visible;visibility:visible;fill:url(#linearGradient920);fill-opacity:1;fill-rule:nonzero;stroke:none;stroke-width:0.26457033;marker:none;enable-background:accumulate"
     d="m 1.2845041,0.1322881 c -0.80473289,0 -0.89132146,0.0817496 -0.88737672,0.8792492 V 2.1165654 3.221591 c -0.003942,0.7975022 0.0826438,0.8792518 0.88737672,0.8792518 h 1.6645336 c 0.8047356,0 0.8873794,-0.081739 0.8873794,-0.8792518 V 2.1165654 0.9826912 L 2.9765636,0.1322881 Z"
     id="path918"
     inkscape:connector-curvature="0"
     sodipodi:nodetypes="scccssscccs" />
  <path
     style="color:#000000;display:inline;overflow:visible;visibility:visible;fill:url(#linearGradient920-7);fill-opacity:1;fill-rule:nonzero;stroke:none;stroke-width:0.26457033;marker:none;enable-background:accumulate"
     d="m 1.4765531,0.5291409 c -0.68269459,0 -0.68269459,0 -0.68259934,0.7033999 v 0.884022 0.8840194 c -9.525e-5,0.7034025 -9.525e-5,0.7034025 0.68259934,0.7034025 h 1.2804118 c 0.6825968,0 0.6825994,0 0.6825994,-0.7034025 V 2.1165628 L 3.4395617,1.0582815 2.9104211,0.5291409 Z"
     id="path918-8"
     inkscape:connector-curvature="0"
     sodipodi:nodetypes="scccssscccs" />
  <g
     style="display:inline;enable-background:new"
     id="g12758"
     transform="matrix(0.26457031,0,0,0.26457031,-260.86827,186.68738)">
    <path
       sodipodi:nodetypes="cccc"
       d="m 997.5,-698.1378 -5.5,5 h 5.5 z"
       style="fill:#e9b913;stroke:#e9b913;stroke-width:1;stroke-linecap:butt;stroke-linejoin:round;stroke-opacity:1"
       id="path12760"
       inkscape:connector-curvature="0" />
    <path
       id="path10642"
       d="m 997.34375,-698.625 c -0.0712,0.0269 -0.13532,0.0696 -0.1875,0.125 l -5.5,5 c -0.15783,0.13912 -0.21169,0.36215 -0.13477,0.55797 0.0769,0.19582 0.2682,0.32254 0.47852,0.31703 h 5.5 c 0.27613,-3e-5 0.49997,-0.22387 0.5,-0.5 v -5 c 0.008,-0.16474 -0.0652,-0.32297 -0.19636,-0.42294 -0.13121,-0.1 -0.30327,-0.12879 -0.45989,-0.0771 z M 997,-697 v 3.375 h -3.71875 z"
       style="font-style:normal;font-variant:normal;font-weight:normal;font-stretch:normal;font-size:medium;line-height:normal;font-family:'Andale Mono';text-indent:0pt;text-align:start;text-decoration:none;text-decoration-line:none;letter-spacing:normal;word-spacing:normal;text-transform:none;direction:ltr;text-anchor:start;display:inline;overflow:visible;visibility:visible;fill:url(#linearGradient54154);fill-opacity:1;fill-rule:nonzero;stroke:none;stroke-width:1;marker:none"
       inkscape:connector-curvature="0" />
    <path
       sodipodi:open="true"
       sodipodi:end="5.7595865"
       sodipodi:start="2.3561945"
       transform="matrix(1.05634,-0.0723819,0.0723819,1.05634,-261.636,-1731.79)"
       d="m 1113.6781,1058.0121 a 2.3685112,2.3685112 0 0 1 -0.5509,-2.4849 2.3685112,2.3685112 0 0 1 2.0193,-1.5494 2.3685112,2.3685112 0 0 1 2.2576,1.1752"
       sodipodi:ry="2.3685112"
       sodipodi:rx="2.3685112"
       sodipodi:cy="1056.3373"
       sodipodi:cx="1115.3529"
       id="path10667"
       style="display:inline;overflow:visible;visibility:visible;fill:#f09e6f;fill-opacity:1;fill-rule:nonzero;stroke:#a33e03;stroke-width:0.94444901;stroke-linecap:round;stroke-linejoin:round;stroke-miterlimit:4;stroke-dasharray:none;stroke-dashoffset:0;stroke-opacity:1;marker:none"
       sodipodi:type="arc" />
  </g>
  <path
     style="color:#000000;display:inline;overflow:visible;visibility:visible;opacity:0.2;fill:#ffffff;fill-opacity:1;fill-rule:nonzero;stroke:none;stroke-width:0.26457033;marker:none;enable-background:accumulate"
     d="M 2.1167101,0.26457061 V 3.968555 h 0.7683915 c 0.7428341,0 0.8190304,-0.076236 0.8190304,-0.8205807 V 2.1165628 1.0582815 L 2.9104211,0.26457061 Z"
     id="path1009"
     inkscape:connector-curvature="0"
     sodipodi:nodetypes="ccsscccc" />
  <path
     style="color:#000000;display:inline;overflow:visible;visibility:visible;opacity:0.2;fill:#ffffff;fill-opacity:1;fill-rule:nonzero;stroke:none;stroke-width:0.26457033;marker:none;enable-background:accumulate"
     d="M 0.5292882,2.1165628 V 3.1479743 C 0.5256372,3.8923085 0.6054871,3.968555 1.3483185,3.968555 h 1.5367831 c 0.7428341,0 0.8190304,-0.076236 0.8190304,-0.8205807 V 2.1165628 Z"
     id="path1016"
     inkscape:connector-curvature="0" />
  <path
     style="color:#000000;font-style:normal;font-variant:normal;font-weight:normal;font-stretch:normal;font-size:medium;line-height:normal;font-family:sans-serif;font-variant-ligatures:normal;font-variant-position:normal;font-variant-caps:normal;font-variant-numeric:normal;font-variant-alternates:normal;font-feature-settings:normal;text-indent:0;text-align:start;text-decoration:none;text-decoration-line:none;text-decoration-style:solid;text-decoration-color:#000000;letter-spacing:normal;word-spacing:normal;text-transform:none;writing-mode:lr-tb;direction:ltr;text-orientation:mixed;dominant-baseline:auto;baseline-shift:baseline;text-anchor:start;white-space:normal;shape-padding:0;clip-rule:nonzero;display:inline;overflow:visible;visibility:visible;opacity:0.4;isolation:auto;mix-blend-mode:normal;color-interpolation:sRGB;color-interpolation-filters:linearRGB;solid-color:#000000;solid-opacity:1;vector-effect:none;fill:#000000;fill-opacity:1;fill-rule:nonzero;stroke:none;stroke-width:0.52914065;stroke-linecap:butt;stroke-linejoin:miter;stroke-miterlimit:4;stroke-dasharray:none;stroke-dashoffset:0;stroke-opacity:1;marker:none;color-rendering:auto;image-rendering:auto;shape-rendering:auto;text-rendering:auto;enable-background:accumulate"
     d="M 1.3483185,3e-7 C 1.1580819,3e-7 1.0038876,0.0036783 0.86258594,0.0273886 0.72128158,0.05112058 0.57994548,0.1004841 0.47192935,0.20824624 0.36391587,0.31600573 0.31409463,0.45779954 0.29055581,0.5994161 0.26700906,0.7410406 0.26379453,0.8958618 0.2647073,1.0867017 V 2.1165628 3.1479743 C 0.26391359,3.3379781 0.2670883,3.4925374 0.2905558,3.6337095 0.3141026,3.7753287 0.3639132,3.9171199 0.47192934,4.0248794 0.57994547,4.1326415 0.72128157,4.1820183 0.86258593,4.205737 1.0038876,4.229469 1.1580819,4.233125 1.3483185,4.233125 h 1.5367831 c 0.1902367,0 0.3440949,-0.00362 0.4852167,-0.027388 C 3.5114428,4.1819786 3.6527948,4.1322076 3.7604564,4.0243634 3.868118,3.9165193 3.9176217,3.7749504 3.941314,3.6337095 3.9650089,3.492466 3.9687023,3.3385787 3.9687023,3.1479743 V 2.1165628 0.9487336 L 3.019969,3e-7 Z m 0,0.26457031 H 2.9104211 L 3.704132,1.0582815 v 1.0582813 1.0314115 c 0,0.7443448 -0.076196,0.8205807 -0.8190304,0.8205807 H 1.3483185 c -0.7428314,0 -0.82268138,-0.076246 -0.8190303,-0.8205807 V 2.1165628 1.0851513 C 0.5256477,0.34081713 0.6054871,0.26457061 1.3483185,0.26457061 Z"
     id="path928"
     inkscape:connector-curvature="0"
     sodipodi:nodetypes="scscccccccsscscscccsscccssscccs" />
  <path
     style="color:#000000;font-style:normal;font-variant:normal;font-weight:normal;font-stretch:normal;font-size:medium;line-height:normal;font-family:sans-serif;font-variant-ligatures:normal;font-variant-position:normal;font-variant-caps:normal;font-variant-numeric:normal;font-variant-alternates:normal;font-feature-settings:normal;text-indent:0;text-align:start;text-decoration:none;text-decoration-line:none;text-decoration-style:solid;text-decoration-color:#000000;letter-spacing:normal;word-spacing:normal;text-transform:none;writing-mode:lr-tb;direction:ltr;text-orientation:mixed;dominant-baseline:auto;baseline-shift:baseline;text-anchor:start;white-space:normal;shape-padding:0;clip-rule:nonzero;display:inline;overflow:visible;visibility:visible;opacity:0.4;isolation:auto;mix-blend-mode:normal;color-interpolation:sRGB;color-interpolation-filters:linearRGB;solid-color:#000000;solid-opacity:1;vector-effect:none;fill:url(#linearGradient993);fill-opacity:1;fill-rule:nonzero;stroke:none;stroke-width:0.52914065;stroke-linecap:butt;stroke-linejoin:miter;stroke-miterlimit:4;stroke-dasharray:none;stroke-dashoffset:0;stroke-opacity:1;marker:none;color-rendering:auto;image-rendering:auto;shape-rendering:auto;text-rendering:auto;enable-background:accumulate"
     clip-path="none"
     d="m 1.3483185,0.26457061 c -0.7428314,0 -0.8226708,0.0762465 -0.8190303,0.82058069 V 2.1165628 3.1479743 C 0.5256372,3.8923085 0.6054871,3.968555 1.3483185,3.968555 h 1.5367831 c 0.7428341,0 0.8190304,-0.076236 0.8190304,-0.8205807 V 2.1165628 1.0582815 L 2.9104211,0.26457061 Z m 0,0.26457029 h 1.5621026 l 0.5291406,0.5291406 v 1.0582813 1.0314115 c 0,0.1815667 -0.00582,0.3159975 -0.019631,0.3984058 -0.013811,0.082406 -0.029841,0.09959 -0.034103,0.1038651 -0.00426,0.00426 -0.021245,0.020293 -0.1033491,0.034103 -0.082112,0.013816 -0.2161962,0.019636 -0.3973767,0.019636 H 1.3483185 c -0.1811777,0 -0.3153969,-0.0063 -0.39788728,-0.02016 C 0.86793822,3.6699872 0.85041571,3.6545892 0.8460503,3.6502372 0.8416853,3.6458672 0.8261017,3.6289132 0.8124605,3.5468881 0.7988351,3.4648581 0.7929617,3.3303241 0.7938612,3.1489982 V 3.148469 2.1165628 1.0846354 1.0841063 c -7.9371e-4,-0.1813286 0.004974,-0.31586 0.0185993,-0.39789 0.0136254,-0.08203 0.0292218,-0.098992 0.0335898,-0.1033491 0.004365,-0.00436 0.02188,-0.019737 0.10438092,-0.033587 0.08249,-0.013837 0.21670958,-0.02016 0.39788728,-0.02016 z"
     id="path937"
     inkscape:connector-curvature="0"
     sodipodi:nodetypes="scccssscccsscccscccssccccccccsccs" />
  <path
     inkscape:connector-curvature="0"
     style="color:#000000;display:inline;overflow:visible;visibility:visible;opacity:0.6;fill:#7c3216;fill-opacity:1;fill-rule:nonzero;stroke:none;stroke-width:0.06614863;marker:none;enable-background:accumulate"
     d="M 3.704132,1.3228519 V 1.0582815 L 2.9104211,0.26457061 H 2.6458507 v 0.40494339 0.01553 0.00833 c 0,0.5476103 0.073304,0.6320506 0.6221715,0.6293652 z"
     id="rect4158-0-3-62-2-3-7-3"
     sodipodi:nodetypes="ccccccscc" />
  <path
     inkscape:connector-curvature="0"
     style="color:#000000;display:inline;overflow:visible;visibility:visible;fill:#d98027;fill-opacity:1;fill-rule:nonzero;stroke:none;stroke-width:0.06614863;marker:none;enable-background:accumulate"
     d="M 3.704132,1.058181 2.9104211,0.26457061 v 0.29438469 0.012832 0.00688 c 0,0.4517777 0.020822,0.4817641 0.4736364,0.4795496 z"
     id="rect4158-0-3-62-6-5-5"
     sodipodi:nodetypes="ccccscc" />
</svg>
